X:19114
T:Xiringosa
T:Geringosa
R:Xiringosa
C:Tradicional
S:Música Tradicional Asturiana, (C) Tello & Tito. Asturies, 2001.
S:http://pagina.de/MusTradAst <telloytito@asturies.org>
O:Quintana (Valdés)
A:Asturies
Z:ByD IDEA
M:2/8
L:1/8
Q:1/4=126
K:C
|EF|GG|GE|CC|CC|C C/C/|C D/E/|F2|F z|
|EF|G G/G/|G G/G/|CC|C C/C/|CC|C D/E/|F2|F z|


